X: 24573
T: Luseblus
R: reel
M: 4/4
K: Ddorian
|:D3 E F2 FE|D2 DE F2 A2|D3 E F2 ED|EFED C2 A,2|
D3 E F2 FG|A_BAG A2 "tr"A2|A2 dedc Ac|d4 d4:|
|:f2 fe f2 a2|efed e3 g|f2 fe d2 df|efed c2 A2|
d3 c A2 Ac|BcBG A3 F|F2 DF E2 DC|D4 D4:|
|:CD (A,2"tr"A,2) CD|^F4 CDA,C|D4 D4|
CD (A,2"tr"A,2) CD|^F4 GA=FD|C4 D4:|

